!!!!SEGMENT: pl-kk--kk-i-3--011-002_anonim--virginitatis-et-in-terra.krn
!!!cenid: 15xx:610
!!!COM: Anonim
!!!COM-rismID: pe30004985
!!!CDT:
!!!CNT:
!!!OPR: [Virginitatis]
!!!OTL: Et in terra
!!!OMV: 002
!!!PDT:
!!!AGN:
!!!SMS-siglum: PL-Kk
!!!SMS-shelfmark: Kk.I.3
!!!SMS-shelfwork: 011-002 M
!!!SMS-variant:
!!!SMS-altvar:
!!!NIFC-rismSourceID: 1001145493
!!!NIFC-islandoraID: pl-kk:1170
!!!URL-pdf-islandora: https://repozytorium.nifc.pl/islandora/object/pl-kk%3A1170/datastream/PDF/view
!!!URL-scan: https://polish.musicsources.pl/pl/lokalizacje/galeria/rekopisy/5919 @EN{Scan on Polish Music Herritage in Open Access Website} @PL{Skany w portalu Dziedzictwo Muzyki Polskiej w otwartym dostępie}
!!!ONB-nifc: UWAGA: Discantus (s. 59r-61v, skan 0061-0064), Tenor (s. 40v-42r, skan 0213-0214), Bassus (s. 55r-57v, skan 0358-0361)
!!!AIN: 1 bass 1 soprn 1 tenor
!!!key:
**kern	**text	**kern	**text	**kern	**text
*part3	*part3	*part2	*part2	*part1	*part1
*staff3	*staff3	*staff2	*staff2	*staff1	*staff1
*I"[Bassus]	*	*I"[Tenor]	*	*I"[Discantus]	*
*I'[B]	*	*I'[T]	*	*I'[S]	*
*Ibass	*	*Itenor	*	*Isoprn	*
*ICvox	*	*ICvox	*	*ICvox	*
*clefF3	*	*clefC4	*	*clefC3	*
*k[]	*	*k[]	*	*k[]	*
*C:	*	*C:	*	*C:	*
*M2/1	*	*M2/1	*	*M2/1	*
*met(C|)	*	*met(C|)	*	*met(C|)	*
=1-	=1-	=1-	=1-	=1-	=1-
*2\right	*	*2\right	*	*2\right	*
!!LO:TX:t=P:problem:brak metrum
1G	Et	1G	Et	1g	Et
*lig	*	*lig	*	*	*
1G	in	1G	in	2g\	in
.	.	.	.	1g\	.
=2-	=2-	=2-	=2-	=2-	=2-
1A	.	1c	.	.	.
.	.	.	.	2f\	.
*Xlig	*	*Xlig	*	*	*
1G	.	1B	.	1g	.
=3-	=3-	=3-	=3-	=3-	=3-
*lig	*	*lig	*	*lig	*
1E	ter-	1c	ter-	1g	ter-
1D	.	1d	.	1f	.
*Xlig	*	*Xlig	*	*Xlig	*
=4-	=4-	=4-	=4-	=4-	=4-
1D	-ra	1d	-ra	1f	ra
1G	Pax	1d	Pax	1g	Pax
=5-	=5-	=5-	=5-	=5-	=5-
*lig	*	*lig	*	*lig	*
1C	ho-	1c	ho-	1e	ho-
1D	.	1B	.	1d	.
*Xlig	*	*Xlig	*	*Xlig	*
=6-	=6-	=6-	=6-	=6-	=6-
*	*	*lig	*	*	*
2C/	-mi-	1c	-mi-	2e/	-mi-
1C	-ni-	.	.	1g	.
.	.	1d	.	.	.
2BB/	.	.	.	2g\	.
*custos:C	*	*Xlig	*	*	*
=7-	=7-	=7-	=7-	=7-	=7-
*	*	*lig	*	*	*
!LO:LB:g=original	!	!	!	!	!
2C/	-ni-	1c	-ni-	1g	-ni-
2D/	.	.	.	.	.
*	*	*	*	*custos:g	*
*	*	*	*	*lig	*
!	!	!	!	!LO:LB:g=original	!
2E/	.	1B	.	1g	-bvs
2F/	.	.	.	.	.
*	*	*Xlig	*	*	*
=8-	=8-	=8-	=8-	=8-	=8-
1G	-bus	1B	-bus	1d	.
*	*	*custos:B	*	*Xlig	*
!	!	!LO:LB:g=original	!	!	!
1G	bo-	1B	bo-	1e	bo-
=9-	=9-	=9-	=9-	=9-	=9-
*	*	*lig	*	*	*
2F/	.	1c	.	2f\	.
2E/	.	.	.	1g	ne
1D	.	1d	.	.	.
.	.	.	.	2f\	.
*	*	*Xlig	*	*	*
=10-	=10-	=10-	=10-	=10-	=10-
1G	-ne	1d	-ne	1g	.
1A	.	1c	.	2e\	.
.	.	.	.	2f\	.
=11-	=11-	=11-	=11-	=11-	=11-
*	*	*lig	*	*	*
1G	.	1B	.	1g	.
1C	.	1c	.	2g\	.
.	.	.	.	2e/	.
*	*	*Xlig	*	*	*
=12-	=12-	=12-	=12-	=12-	=12-
*	*	*lig	*	*	*
1D	vo-	1A	vo-	1d	vo-
2E/	.	1G	.	2B/	.
2C/	.	.	.	1c\	-lun-
*custos:F	*	*	*	*	*
*custos:F	*	*Xlig	*	*	*
=13-	=13-	=13-	=13-	=13-	=13-
*	*	*lig	*	*	*
!LO:LB:g=original	!	!	!	!	!
1F	-lun-	1A	-lun-	.	.
.	.	.	.	2c/	.
1F	.	1c	.	1A	-ta-
*	*	*Xlig	*	*custos:B	*
=14-	=14-	=14-	=14-	=14-	=14-
!	!	!	!	!LO:LB:g=original	!
1E	-ta-	1G	-ta-	1B	-ta-
2C/	.	1G	-tis	2c/	-tis
1G\	.	.	.	2B/	.
=15-	=15-	=15-	=15-	=15-	=15-
*	*	*lig	*	*	*
.	.	1D	lau-	1A	lav-
2F/	.	.	.	.	.
1G	-tis	1E	.	2G/	.
.	.	.	.	2g\	.
*	*	*Xlig	*	*	*
=16-	=16-	=16-	=16-	=16-	=16-
*	*	*lig	*	*	*
1E	lau-	1G	-da-	2g\	-da-
.	.	.	.	2g\	.
1D	.	1A	.	1f	.
*	*	*Xlig	*	*	*
=17-	=17-	=17-	=17-	=17-	=17-
*	*	*lig	*	*	*
1A	-da-	1F	-mus	2f\	-mvs
.	.	.	.	2d/	.
2B\	.	1E	.	2g\	.
2c\	.	.	.	1g\	.
*	*	*Xlig	*	*	*
=18-	=18-	=18-	=18-	=18-	=18-
1d	-mus	1D	te	.	.
.	.	.	.	2f\	te
*	*	*custos:E	*	*	*
!	!	!LO:LB:g=original	!	!	!
2B\	.	1E	.	1g	.
2G/	.	.	.	.	.
=19-	=19-	=19-	=19-	=19-	=19-
*	*	*lig	*	*	*
2A\	te	1F	.	1f	.
2B\	.	.	.	.	.
*custos:c	*	*	*	*	*
!LO:LB:g=original	!	!	!	!	!
1c	.	1G	.	1e	.
*	*	*Xlig	*	*custos:e	*
=20-	=20-	=20-	=20-	=20-	=20-
!	!	!	!	!LO:LB:g=original	!
1B	.	1G	be-	2e\	be-
.	.	.	.	2f\	.
0G	be-	1B	-ne-	1g	-ne-
=21-	=21-	=21-	=21-	=21-	=21-
*	*	*lig	*	*	*
.	.	1c	.	1g	.
1A	-ne-	1d	.	1f	.
*	*	*Xlig	*	*	*
=22-	=22-	=22-	=22-	=22-	=22-
1B	.	1d	-di-	1g	-di-
1c	.	1c	.	2e\	.
.	.	.	.	2f\	.
=23-	=23-	=23-	=23-	=23-	=23-
1d	-di-	1B	.	2g\	.
.	.	.	.	2G/	.
1D	.	1A	.	2d/	.
.	.	.	.	1d\	.
=24-	=24-	=24-	=24-	=24-	=24-
1E	.	1G	.	.	.
.	.	.	.	2c/	.
*	*	*lig	*	*	*
1D	-ci-	1A	-ci-	1d	-ci-
=25-	=25-	=25-	=25-	=25-	=25-
1C	.	1c	.	1G	.
*	*	*Xlig	*	*	*
1C	.	1G	.	1c	.
*	*	*	*	*custos:B	*
=26-	=26-	=26-	=26-	=26-	=26-
*	*	*lig	*	*	*
!	!	!	!	!LO:PB:g=original	!
1G	-mus	1E	-mus	1B	-mus
*lig	*	*	*	*	*
1D	.	1F	.	1A	.
*	*	*Xlig	*	*	*
=27-	=27-	=27-	=27-	=27-	=27-
1E	.	1G	a-	1e	te
*Xlig	*	*	*	*	*
2D/	te	1A	.	2f/	a-
*custos:C	*	*	*	*	*
!LO:PB:g=original	!	!	!	!	!
2C/	.	.	.	1e\	-do-
*	*	*custos:D	*	*	*
=28-	=28-	=28-	=28-	=28-	=28-
!	!	!LO:LB:g=original	!	!	!
1BB	.	1D	-do-	.	.
.	.	.	.	1d	.
1AA	.	1E	-ra-	.	.
.	.	.	.	2c/	-ra-
=29-	=29-	=29-	=29-	=29-	=29-
*	*	*lig	*	*	*
1A	.	1F	.	1d	.
1B	.	1G	.	2d/	.
.	.	.	.	1g\	.
*	*	*Xlig	*	*	*
=30-	=30-	=30-	=30-	=30-	=30-
*	*	*lig	*	*	*
1c	.	1A	-mus	.	.
.	.	.	.	2f\	.
2d\	.	1G	.	1g	-mvs
1B\	.	.	.	.	.
*	*	*Xlig	*	*	*
=31-	=31-	=31-	=31-	=31-	=31-
.	.	1E	te	1g	te
2G/	.	.	.	.	.
*	*	*lig	*	*	*
2A/	.	1F	.	2f/	.
1c\	.	.	.	1f\	.
=32-	=32-	=32-	=32-	=32-	=32-
.	.	1G	.	.	.
*	*	*	*	*custos:e	*
!	!	!	!	!LO:LB:g=original	!
2B/	.	.	.	2e/	.
*	*	*Xlig	*	*	*
1c	.	1F	glo-	1f	glo-
=33-	=33-	=33-	=33-	=33-	=33-
2F/	.	1A	-ri-	1f	-ri-
2F/	.	.	.	.	.
*custos:E	*	*lig	*	*	*
!LO:LB:g=original	!	!	!	!	!
2E/	.	1B	.	1g	-fi-
2D/	.	.	.	.	.
=34-	=34-	=34-	=34-	=34-	=34-
1C	.	1c	.	1g	.
*	*	*Xlig	*	*	*
2G/	.	1B	.	1g	.
2E/	.	.	.	.	.
=35-	=35-	=35-	=35-	=35-	=35-
2F/	.	1A	.	1f	.
2D/	.	.	.	.	.
2E/	.	1G	.	1e	.
2C/	.	.	.	.	.
=36-	=36-	=36-	=36-	=36-	=36-
*	*	*lig	*	*	*
1F	.	1A	-fi-	1c	.
1F	.	1D	.	1d	.
*	*	*Xlig	*	*	*
=37-	=37-	=37-	=37-	=37-	=37-
1C	.	1E	-ca-	1g	ca-
*	*	*custos:F	*	*	*
!	!	!LO:LB:g=original	!	!	!
1D	.	1F	.	1f	.
=38-	=38-	=38-	=38-	=38-	=38-
2C/	.	1G	.	2e/	.
2E/	.	.	.	2g\	.
2D/	.	0A	mvs	2f\	.
*custos:C	*	*	*	*	*
!LO:LB:g=original	!	!	!	!	!
2C/	.	.	.	1g\	-mus
=39-	=39-	=39-	=39-	=39-	=39-
1D	.	.	.	.	.
*	*	*	*	*custos:f	*
!	!	!	!	!LO:LB:g=original	!
.	.	.	.	2f\	.
1d\l;<	.	1G/l;	te	1g\l;<	te
=42-	=42-	=42-	=42-	=42-	=42-
*lig	*	*lig	*	*	*
1G	Gra-	1G	Gra-	0g	gra-
1C	.	1c	.	.	.
*Xlig	*	*Xlig	*	*	*
=43-	=43-	=43-	=43-	=43-	=43-
1G	.	1B	.	1g	.
*lig	*	*lig	*	*lig	*
1E	-ci-	1c	-ci-	1g	-ti-
=44-	=44-	=44-	=44-	=44-	=44-
1D	.	1d	.	1f	.
*Xlig	*	*Xlig	*	*Xlig	*
!!LO:TX:t=P:problem:oddech/cezura na różnej wysokości
1D	-as	1d	as	1f,	-as
=45-	=45-	=45-	=45-	=45-	=45-
*	*	*lig	*	*	*
2C/	a-	1e	a-	1g	a-
1C	.	.	.	.	.
.	.	1d	.	2f\	.
2BB/	.	.	.	2g\	.
*	*	*Xlig	*	*	*
=46-	=46-	=46-	=46-	=46-	=46-
*	*	*lig	*	*	*
2C/	-gi-	1c	-gi-	2e/	.
2D/	.	.	.	2f\	-gi-
1E	.	1B	.	1g	.
*custos:E	*	*Xlig	*	*	*
=47-	=47-	=47-	=47-	=47-	=47-
*lig	*	*lig	*	*lig	*
!LO:LB:g=original	!	!	!	!	!
1E	-mvs	1c	-mus	1g	mus
1D	.	1d	.	1f	.
*Xlig	*	*Xlig	*	*Xlig	*
*	*	*	*	*custos:e	*
=48-	=48-	=48-	=48-	=48-	=48-
*	*	*	*	*lig	*
!	!	!	!	!LO:LB:g=original	!
1A	.	1c	.	1e	ti-
*	*	*custos:d	*	*	*
!	!	!LO:PB:g=original	!	!	!
1D	ti-	1d	ti-	1d	.
*	*	*	*	*Xlig	*
=49-	=49-	=49-	=49-	=49-	=49-
1D	-bi	1d	-bi	1f	-bi
2G\	pro-	1d	Pro-	1g	Prop-
2A\	.	.	.	.	.
=50-	=50-	=50-	=50-	=50-	=50-
2B\	-pter	1G	-pter	1g	-ter
2c,\	.	.	.	.	.
1d	ma-	1A	ma-	1f	ma-
=51-	=51-	=51-	=51-	=51-	=51-
2B\	-gna(m)	1G	-gna(m)	2g\	.
2c\	.	.	.	2G/	-gna(m)
*	*	*lig	*	*	*
1d	glo-	1D	glo-	1A	glo-
=52-	=52-	=52-	=52-	=52-	=52-
2c\	.	1F	.	1A	.
2A\	.	.	.	.	.
*	*	*Xlig	*	*	*
1B	.	1E	.	2G/	.
.	.	.	.	2g\	.
*custos:A	*	*	*	*	*
=53-	=53-	=53-	=53-	=53-	=53-
*	*	*lig	*	*	*
!LO:LB:g=original	!	!	!	!	!
2A/	-ri-	1F	-ri-	1a	-ri-
2D/	-am	.	.	.	.
2E/	.	1G	.	2g\	.
2D/	.	.	.	2f\	-am
*	*	*Xlig	*	*	*
=54-	=54-	=54-	=54-	=54-	=54-
2C/	tu-	1G	-am	2e\	.
2E/	.	.	.	1g	tu-
*	*	*lig	*	*	*
1D	.	1A	tu-	.	.
*	*	*	*	*custos:f	*
!	!	!	!	!LO:LB:g=original	!
.	.	.	.	2f\	.
=55-	=55-	=55-	=55-	=55-	=55-
*Xtuplet	*	*	*	*	*
0d\l;<	-am	1G	.	1g	.
*	*	*Xlig	*	*	*
.	.	1G\l;<	-am	1g\l;<	-am
=56-	=56-	=56-	=56-	=56-	=56-
2c\	do-	1c	Do-	2g\	Do-
2F/	.	.	.	1a	.
2D/	-mi-	1B	-mi-	.	.
2E/	.	.	.	2g\	-mi-
*	*	*custos:A	*	*	*
=57-	=57-	=57-	=57-	=57-	=57-
!	!	!LO:LB:g=original	!	!	!
2F/	-ne	1A	-ne	2a\	-ne
2D/	.	.	.	1A	de-
*custos:A	*	*	*	*	*
*lig	*	*lig	*	*	*
!LO:PB:g=original	!	!	!	!	!
1A	de-	1c	de-	.	.
.	.	.	.	2A/	.
=58-	=58-	=58-	=58-	=58-	=58-
1G	.	1d	.	2B/	.
.	.	.	.	1c	-vs
*Xlig	*	*Xlig	*	*	*
1G	-vs	1d	-us	.	.
.	.	.	.	2B/	.
=59-	=59-	=59-	=59-	=59-	=59-
*lig	*	*lig	*	*lig	*
1C	rex	1e	rex	1c	rex
1G	.	1d	.	1B	.
*Xlig	*	*Xlig	*	*Xlig	*
=60-	=60-	=60-	=60-	=60-	=60-
*lig	*	*lig	*	*lig	*
1C	ce-	1c	cel-	1e	ce-
1G	.	1B	.	1d	.
*Xlig	*	*Xlig	*	*Xlig	*
*	*	*	*	*custos:g	*
=61-	=61-	=61-	=61-	=61-	=61-
*lig	*	*lig	*	*	*
!	!	!	!	!LO:PB:g=original	!
1E	-le-	1c	-le-	2g\	-le-
.	.	.	.	1g	.
1D	.	1d	.	.	.
.	.	.	.	2f\	.
*Xlig	*	*Xlig	*	*	*
=62-	=62-	=62-	=62-	=62-	=62-
*lig	*	*lig	*	*	*
1E	.	1c	.	2g\	.
.	.	.	.	1g	.
1D	.	1d	.	.	.
.	.	.	.	2f\	.
*Xlig	*	*Xlig	*	*	*
=63-	=63-	=63-	=63-	=63-	=63-
1E	-stis	1G	-ſtis	1g	-stis
1D	de-	1A	de-	1f	de-
=64-	=64-	=64-	=64-	=64-	=64-
1A	-us	1c	-vs	2e/	-vs
.	.	.	.	1c	.
1G	pa-	1d	Pa-	.	.
.	.	.	.	2B/	Pa-
=65-	=65-	=65-	=65-	=65-	=65-
*lig	*	*lig	*	*	*
1A	-ter	1c	-ter	1c	-ter
1G	.	1B	.	2d/	.
.	.	.	.	2e/	.
*Xlig	*	*Xlig	*	*	*
=66-	=66-	=66-	=66-	=66-	=66-
*lig	*	*lig	*	*	*
1F	.	1A	om-	2f/	.
*	*	*	*	*custos:c	*
!	!	!	!	!LO:LB:g=original	!
.	.	.	.	2c/	.
1E	.	1G	.	2g\	.
.	.	.	.	1g\	om-
*Xlig	*	*Xlig	*	*	*
=67-	=67-	=67-	=67-	=67-	=67-
*	*	*lig	*	*	*
1D	om-	1A	.	.	.
.	.	.	.	2f\	.
*custos:C	*	*	*	*	*
!LO:LB:g=original	!	!	!	!	!
2C/	.	1c	.	1g	.
1c\	.	.	.	.	.
*	*	*Xlig	*	*	*
*	*	*custos:G	*	*	*
=68-	=68-	=68-	=68-	=68-	=68-
!	!	!LO:LB:g=original	!	!	!
.	.	1G	.	1g	.
2B\	-ni-	.	.	.	.
*	*	*lig	*	*	*
2A\	.	1D	-ni-	2f\	-ni-
2G\	.	.	.	2g\	.
=69-	=69-	=69-	=69-	=69-	=69-
2F/	.	1F	.	1a	.
1D	.	.	.	.	.
*	*	*Xlig	*	*	*
.	.	1E	.	1g	.
2C/	.	.	.	.	.
=70-	=70-	=70-	=70-	=70-	=70-
1D	.	1F	.	1f	-po-
*	*	*lig	*	*	*
2C/	.	1G	.	2e/	.
2E/	.	.	.	2g\	.
=71-	=71-	=71-	=71-	=71-	=71-
2D/	.	1A	.	2f\	.
2C/	.	.	.	1g	.
*	*	*Xlig	*	*	*
1D	-po-	1A	-po-	.	.
*	*	*	*	*custos:f	*
!	!	!	!	!LO:LB:g=original	!
.	.	.	.	2f\	.
=72-	=72-	=72-	=72-	=72-	=72-
0d\l;<	-tens	0G/l;	-tens	0g\l;<	-tens
*custos:G	*	*	*	*	*
=73-	=73-	=73-	=73-	=73-	=73-
*clefC4	*	*	*	*	*
!LO:LB:g=original	!	!	!	!	!
1G	Do-	1d	Do-	2g\	do-
.	.	.	.	1g	-mi-
1A	-mi-	1c	-mi-	.	.
.	.	.	.	2f\	.
=74-	=74-	=74-	=74-	=74-	=74-
1G	-ne	1d	-ne	1g	-ne
1G	fi-	1d	fi-	1g	fi-
=75-	=75-	=75-	=75-	=75-	=75-
1E	-li	1c	-li	1g	-li
*	*	*custos:f	*	*	*
1D	u-	1d	u-	1f	v-
*	*	*custos:f	*	*	*
=76-	=76-	=76-	=76-	=76-	=76-
*	*	*clefC3	*	*	*
!	!	!LO:LB:g=original	!	!	!
1D	-ni-	1f	-ni-	1d	-ni-
1C	ge-	1g	ge-	1e	ge-
=77-	=77-	=77-	=77-	=77-	=77-
*lig	*	*lig	*	*lig	*
1D	-ni-	1f	-ni-	1d	-ni-
1C	.	1e	.	1G	.
*Xlig	*	*Xlig	*	*Xlig	*
=78-	=78-	=78-	=78-	=78-	=78-
2C/	-te	1c	-te	1G	-te
2E,/	.	.	.	.	.
*	*	*	*	*custos:A	*
!	!	!	!	!LO:LB:g=original	!
1D	ie-	1d	Je-	1A	Je-
=79-	=79-	=79-	=79-	=79-	=79-
1D	-sv	1f	-sv	1A	-sv
1A	cri-	1c	cri-	1A	cri-
*custos:c	*	*	*	*	*
=80-	=80-	=80-	=80-	=80-	=80-
*lig	*	*lig	*	*lig	*
!LO:LB:g=original	!	!	!	!	!
1c	-ste	1A	-ſte	1F	-ste
1d	.	1B	.	1f	.
*Xlig	*	*Xlig	*	*Xlig	*
=81-	=81-	=81-	=81-	=81-	=81-
*	*	*lig	*	*	*
0c	.	1A	.	1f	.
.	.	1G	.	1g	.
*	*	*Xlig	*	*	*
=82-	=82-	=82-	=82-	=82-	=82-
1d	et	1A	et	1f	et
2e\	san-	1c	San-	2g\	san-
2d\	.	.	.	1f\	.
=83-	=83-	=83-	=83-	=83-	=83-
2c\	-cte	1G	-cte	.	.
2B/	.	.	.	2e\	-cte
*lig	*	*	*	*	*
1A	.	1F	.	1f	.
=84-	=84-	=84-	=84-	=84-	=84-
1G	.	1E	.	1g	.
*Xlig	*	*custos:F	*	*	*
*	*	*clefC4	*	*	*
!	!	!LO:LB:g=original	!	!	!
1A	.	1F	.	2c/	.
.	.	.	.	1f\	spi-
=85-	=85-	=85-	=85-	=85-	=85-
*	*	*lig	*	*	*
0A	.	1D	Spi-	.	.
*	*	*	*	*custos:g	*
!	!	!	!	!LO:LB:g=original	!
.	.	.	.	2g\	.
.	.	1F	.	1a	.
*	*	*Xlig	*	*	*
=86-	=86-	=86-	=86-	=86-	=86-
2B/	spi-	1E	.	1g	.
1c	.	.	.	.	.
*	*	*lig	*	*lig	*
.	.	1F	-ri-	1f	.
2c/	.	.	.	.	.
=87-	=87-	=87-	=87-	=87-	=87-
*lig	*	*	*	*	*
1C	.	1G	.	1e	.
*	*	*Xlig	*	*Xlig	*
1D	.	1F	.	1d	-ri-
*Xlig	*	*	*	*	*
=88-	=88-	=88-	=88-	=88-	=88-
1C	-ri-	0Gl;	-tus	0el;<	-tvs
*custos:C	*	*	*	*	*
*clefF3	*	*	*	*	*
!LO:LB:g=original	!	!	!	!	!
1C/l;	-tus	.	.	.	.
=89-	=89-	=89-	=89-	=89-	=89-
1D	do-	1d	Do-	1a	Do-
1A	-mi-	1c	-mi-	1a	-mi-
=90-	=90-	=90-	=90-	=90-	=90-
1D	-ne	1d	-ne	1a	-ne
1D	de-	1d	de-	1a	de-
=91-	=91-	=91-	=91-	=91-	=91-
1D,	-us	1d	-vs	1a	-vs
*	*	*custos:d	*	*	*
*	*	*clefC3	*	*	*
!	!	!LO:PB:g=original	!	!	!
1D	a-	1d	a-	1A	a-
=92-	=92-	=92-	=92-	=92-	=92-
1C	-gnus	1g	-gnus	1c	-gnus
*lig	*	*lig	*	*lig	*
1D	de-	1f	de-	1A	de-
=93-	=93-	=93-	=93-	=93-	=93-
1E	.	1g	.	1G	.
*	*	*	*	*custos:c	*
*Xlig	*	*Xlig	*	*Xlig	*
!	!	!	!	!LO:PB:g=original	!
1C	-i	1g	-i	1c	-i
=94-	=94-	=94-	=94-	=94-	=94-
*lig	*	*lig	*	*	*
1F	fi-	1a	fi-	1c	fi-
1C	.	1g	.	1c	.
*Xlig	*	*Xlig	*	*	*
=95-	=95-	=95-	=95-	=95-	=95-
*	*	*lig	*	*lig	*
1D	-li-	1f	-li-	1F	-li-
2C/	.	1e	.	1G	.
*custos:E	*	*	*	*	*
!LO:PB:g=original	!	!	!	!	!
2E/	.	.	.	.	.
*	*	*Xlig	*	*Xlig	*
=96-	=96-	=96-	=96-	=96-	=96-
*	*	*lig	*	*lig	*
1D	-us	1f	-vs	1A	-vs
*lig	*	*	*	*	*
1E	.	1g	.	1G	.
*	*	*Xlig	*	*Xlig	*
=97-	=97-	=97-	=97-	=97-	=97-
1D	.	1f	.	1A	Pa-
*Xlig	*	*	*	*	*
1E	Pa-	1g	Pa-	2G/	-tris
.	.	.	.	2g\	.
=98-	=98-	=98-	=98-	=98-	=98-
1F	-tris	1c	-tris	2a\	qvi
.	.	.	.	2g\	.
1D	qvi	1d	qvi	2f\	tol-
.	.	.	.	2e/	.
=99-	=99-	=99-	=99-	=99-	=99-
1D	tol-	1f	tol-	1d	-lis
1C	-lis	1g	-lis	2e/	.
*	*	*	*	*custos:c	*
!	!	!	!	!LO:LB:g=original	!
.	.	.	.	1c\	pec-
=100-	=100-	=100-	=100-	=100-	=100-
1G	Pec-	1d	Pec-	.	.
.	.	.	.	2B/	-ca-
*	*	*custos:c	*	*	*
*lig	*	*lig	*	*	*
!	!	!LO:LB:g=original	!	!	!
1A	-ca-	1c	-ca-	2c/	.
.	.	.	.	2e\	.
=101-	=101-	=101-	=101-	=101-	=101-
1G	.	1d	.	2g\	-ta
.	.	.	.	2g\	.
*Xlig	*	*Xlig	*	*	*
*	*	*lig	*	*	*
2F/	-ta	1A	-ta	2a\	.
2D/	.	.	.	2f/	.
=102-	=102-	=102-	=102-	=102-	=102-
1G	.	1B	.	2d/	.
.	.	.	.	1g	.
*	*	*Xlig	*	*	*
1D	.	1A	.	.	.
.	.	.	.	2f\	.
*custos:E	*	*	*	*	*
=103-	=103-	=103-	=103-	=103-	=103-
!LO:LB:g=original	!	!	!	!	!
1E	.	1G	.	1g	mu(n)-
1F	mu(n)-	1c	mun-	1f	-di
=104-	=104-	=104-	=104-	=104-	=104-
1D	-di	1d	-di	2f\	mi-
.	.	.	.	2d/	.
*lig	*	*	*	*	*
1E	mi-	1G	mi-	1g	.
*	*	*	*	*custos:f	*
=105-	=105-	=105-	=105-	=105-	=105-
*	*	*lig	*	*	*
!	!	!	!	!LO:LB:g=original	!
1D	.	1A	.	1f	.
*Xlig	*	*	*	*lig	*
1E	.	1c	.	1e	-se-
*	*	*Xlig	*	*	*
=106-	=106-	=106-	=106-	=106-	=106-
*lig	*	*lig	*	*	*
1D	-se-	1A	-se-	1d	.
*	*	*	*	*Xlig	*
1C	.	1c,	.	1e	-re-
*Xlig	*	*Xlig	*	*	*
=107-	=107-	=107-	=107-	=107-	=107-
*	*	*clefF2	*	*	*
1C	-re-	1G	-re-	1c	-re
*	*	*	*	*lig	*
0c	.	1F	-re	1f	.
=108-	=108-	=108-	=108-	=108-	=108-
.	.	1E	.	1g	.
*	*	*	*	*Xlig	*
1d	.	1D	.	1f	no-
=109-	=109-	=109-	=109-	=109-	=109-
1c	-re	1F	no-	1f	.
*	*	*custos:G	*	*	*
*	*	*clefC3	*	*	*
*	*	*lig	*	*	*
!	!	!LO:LB:g=original	!	!	!
2C/	no-	1G	.	2e/	.
2E/	.	.	.	2g\	.
=110-	=110-	=110-	=110-	=110-	=110-
2D/	.	1A	.	2f\	.
2C/	.	.	.	1g	.
*custos:D	*	*Xlig	*	*	*
!LO:LB:g=original	!	!	!	!	!
1D	.	1A	.	.	.
.	.	.	.	2f\	.
=111-	=111-	=111-	=111-	=111-	=111-
0\d;<l	-bis	0G/l;	-bis	0g\l;;	-bis
=112-	=112-	=112-	=112-	=112-	=112-
1G	Qui	1d	Qvi	1G	Qui
1D	tol-	1f	tol-	1A	tol-
*	*	*	*	*custos:B	*
=113-	=113-	=113-	=113-	=113-	=113-
!	!	!	!	!LO:LB:g=original	!
1G	-lis	1g	-lis	1B	-lis
2G/	pe[c]-	1d	Pec-	2B/	Pec-
2F/	.	.	.	1A/	-ca-
=114-	=114-	=114-	=114-	=114-	=114-
*	*	*lig	*	*	*
1E	-ca-	1c	-ca-	.	.
.	.	.	.	2G/	.
*	*	*	*	*lig	*
1D	.	1d	.	1A	ta
*	*	*Xlig	*	*	*
=115-	=115-	=115-	=115-	=115-	=115-
*lig	*	*lig	*	*	*
1D	-ta	1A	-ta	1d	.
*	*	*	*	*Xlig	*
1G	.	1B	.	2d/	.
.	.	.	.	2e/	.
*Xlig	*	*Xlig	*	*	*
=116-	=116-	=116-	=116-	=116-	=116-
2F/	.	1A	.	1f	.
2D/	.	.	.	.	.
1E	.	1G	.	1g	.
=117-	=117-	=117-	=117-	=117-	=117-
2F/	mu(n)-	1c	mvn-	1f	mu(n)-
*custos:E	*	*	*	*	*
!LO:LB:g=original	!	!	!	!	!
2E/	.	.	.	.	.
2D/	.	0d	-di	2f\	-di
1G\	-di	.	.	2g\	.
=118-	=118-	=118-	=118-	=118-	=118-
.	.	.	.	1a	sus-
2F/	.	.	.	.	.
*	*	*lig	*	*	*
0G	su-	1d	su-	2g\	.
.	.	.	.	1d\	ci-
=119-	=119-	=119-	=119-	=119-	=119-
.	.	1g	.	.	.
.	.	.	.	2e/	.
*	*	*Xlig	*	*	*
!	!	!LO:LB:g=original	!	!	!
1F	-[s]ci-	1a	.	1f	.
*	*	*	*	*custos:e	*
=120-	=120-	=120-	=120-	=120-	=120-
*	*	*	*	*clefC2	*
!	!	!	!	!LO:LB:g=original	!
1C	-pe	1g	-sci-	1e	-pe
2C/	de-	1g	-pe	1e	de-
2D/	.	.	.	.	.
=121-	=121-	=121-	=121-	=121-	=121-
2E/	.	1g	de-	1e	-pre-
2C/	-pre-	.	.	.	.
1D	-ci-	1f	-pre-	1d	-ca-
=122-	=122-	=122-	=122-	=122-	=122-
1C	-o-	1g	-ca-	1e	-ci-
1F	.	1c	-ci-	1f	-o-
=123-	=123-	=123-	=123-	=123-	=123-
2F/	-nem	1A	-o-	1f	-nem
*custos:G	*	*	*	*	*
!LO:LB:g=original	!	!	!	!	!
2G/	.	.	.	.	.
1A	.	1c	-nem	1e	no-
=124-	=124-	=124-	=124-	=124-	=124-
0D	no-	1d	no-	2f/	.
.	.	.	.	1g	.
.	.	[1/dl;	-stram	.	.
.	.	.	.	2f/	.
=125-	=125-	=125-	=125-	=125-	=125-
0G	.	0d_	.	1g	.
.	.	.	.	1g	.
=126-	=126-	=126-	=126-	=126-	=126-
0/lD;	-stram	0d]	.	0\lf;;	-stram
=127-	=127-	=127-	=127-	=127-	=127-
*lig	*	*lig	*	*lig	*
1E	qvi	1G	Qui	1g	Qui
1D	.	1A	.	1f	.
*Xlig	*	*Xlig	*	*Xlig	*
*	*	*	*	*custos:g	*
=128-	=128-	=128-	=128-	=128-	=128-
!	!	!	!	!LO:PB:g=original	!
1E	se-	1G	se-	1g	se-
*lig	*	*	*	*	*
1D	-des	1F	-des	1a	-des
*	*	*custos:E	*	*	*
=129-	=129-	=129-	=129-	=129-	=129-
*	*	*clefC4	*	*	*
!	!	!LO:LB:g=original	!	!	!
1G	.	1E	.	2g/	.
.	.	.	.	1g	.
*Xlig	*	*	*	*	*
1A	.	1D	.	.	.
.	.	.	.	2f/	.
=130-	=130-	=130-	=130-	=130-	=130-
*	*	*lig	*	*	*
2G/	ad	1G	ad	1g	ad
2E/	.	.	.	.	.
1D	.	1A	.	1f	.
*	*	*Xlig	*	*	*
=131-	=131-	=131-	=131-	=131-	=131-
*	*	*lig	*	*	*
1C	dex-	1c	dex-	1e	dex-
*custos:G	*	*	*	*	*
!LO:PB:g=original	!	!	!	!	!
1G	.	1B	.	2d/	.
.	.	.	.	2e/	.
*	*	*Xlig	*	*	*
=132-	=132-	=132-	=132-	=132-	=132-
1F	.	1c	.	1f	.
1F	-te-	1A	-te-	1f	-te-
=133-	=133-	=133-	=133-	=133-	=133-
1E	-ram	1G	-ram	1g	-ram
*	*	*lig	*	*	*
2F/	pa-	1c	Pa-	2c/	Pa-
2E/	.	.	.	1g\	.
=134-	=134-	=134-	=134-	=134-	=134-
*lig	*	*	*	*	*
1D	.	1d	.	.	.
.	.	.	.	2f/	.
*	*	*Xlig	*	*custos:g	*
!	!	!	!	!LO:LB:g=original	!
1E	.	1c	.	2g\	.
.	.	.	.	1g\	-tris
*Xlig	*	*	*	*	*
=135-	=135-	=135-	=135-	=135-	=135-
1D	-tris	1d	-tris	.	.
.	.	.	.	2f/	.
*lig	*	*	*	*	*
1E	mi-	1G	mi-	1g	mi-
=136-	=136-	=136-	=136-	=136-	=136-
*	*	*lig	*	*	*
1D	.	1A	.	1f	.
*Xlig	*	*	*	*	*
*lig	*	*	*	*	*
1C	-se-	1c	.	1e	.
*	*	*Xlig	*	*	*
=137-	=137-	=137-	=137-	=137-	=137-
*	*	*lig	*	*lig	*
1D	.	1A	-se-	1f	-se-
*Xlig	*	*	*	*	*
1C	.	1c	.	1e	.
*	*	*Xlig	*	*Xlig	*
=138-	=138-	=138-	=138-	=138-	=138-
1C	-re-	1G	-re-	1e	.
*	*	*custos:F	*	*	*
*	*	*lig	*	*	*
!	!	!LO:PB:g=original	!	!	!
1c	-re	1F	-re	1a	-re-
=139-	=139-	=139-	=139-	=139-	=139-
1c	no-	1E	.	1g	-re
*custos:d	*	*Xlig	*	*	*
!LO:LB:g=original	!	!	!	!	!
1d	.	1D	.	2f/	no-
.	.	.	.	2g/	.
=140-	=140-	=140-	=140-	=140-	=140-
2A/	.	2F/	no-	2a\	.
1d	.	2G/	.	1g	.
.	.	1A	.	.	.
2c\	.	.	.	2f/	.
=141-	=141-	=141-	=141-	=141-	=141-
0\ld;<	-bis	1G	.	0g\l;<	-bis
!	!	!LO:N:vis=0	!	!	!
.	.	1G;	-bis	.	.
*	*	*	*	*custos:g	*
=142-	=142-	=142-	=142-	=142-	=142-
!	!	!	!	!LO:LB:g=original	!
1C	Quo-	1c	Qvo-	2g\	Qu-
.	.	.	.	1a	-o-
2D/	-ni-	1B	-ni-	.	.
2E/	.	.	.	2g\	-ni-
=143-	=143-	=143-	=143-	=143-	=143-
2C/	-am	1A	-am	2e/	-am
2D,/	.	.	.	2f/	.
*	*	*lig	*	*	*
1E	tu	1c	tv	2g/	tv
.	.	.	.	1g\	.
=144-	=144-	=144-	=144-	=144-	=144-
2D/	.	1d	.	.	.
1D	So-	.	.	2f/	.
*	*	*Xlig	*	*	*
*	*	*lig	*	*	*
.	.	1e	so-	1g	so-
!LO:TX:t=P:problem=custos na wyrwanej kartce	!	!	!	!	!
2C/	.	.	.	.	.
*custos:D	*	*	*	*	*
=145-	=145-	=145-	=145-	=145-	=145-
!LO:LB:g=original	!	!	!	!	!
2D/	.	1d	.	1f	.
2E/	.	.	.	.	.
*	*	*Xlig	*	*	*
*	*	*custos:c	*	*	*
*	*	*clef:C3	*	*	*
*	*	*lig	*	*	*
!	!	!LO:LB:g=original	!	!	!
1F	-lus	1c	-lus	1f	-lus
=146-	=146-	=146-	=146-	=146-	=146-
1G	.	1B	.	2d/	.
.	.	.	.	2e/	.
*lig	*	*Xlig	*	*	*
*	*	*lig	*	*	*
1F	San-	1c	San-	0f	san-
=147-	=147-	=147-	=147-	=147-	=147-
1D	.	1d	.	.	.
*Xlig	*	*Xlig	*	*	*
1E	.	1c	.	1g	.
*	*	*	*	*custos:f	*
=148-	=148-	=148-	=148-	=148-	=148-
!	!	!	!	!LO:LB:g=original	!
0D;	-ctus	0d\l;	-ctus	0f\l;<	-ctvs
=149-	=149-	=149-	=149-	=149-	=149-
*	*	*lig	*	*	*
1E	Tu	1G	Tu	1g	Tu
2D/	.	1d	.	2f/	.
2E/	.	.	.	2g/	so-
*	*	*Xlig	*	*	*
=150-	=150-	=150-	=150-	=150-	=150-
1F	So-	1c	So-	0a	-lus
1F	-lus	1f	-lus	.	.
=151-	=151-	=151-	=151-	=151-	=151-
*lig	*	*	*	*lig	*
1C	do-	1e	do-	1g	do-
*	*	*lig	*	*	*
1F	.	1f	.	1a	.
*Xlig	*	*	*	*Xlig	*
*custos:G	*	*	*	*	*
=152-	=152-	=152-	=152-	=152-	=152-
*lig	*	*	*	*	*
!LO:LB:g=original	!	!	!	!	!
1G	.	1d	.	1g	.
*	*	*Xlig	*	*	*
*	*	*lig	*	*	*
1E	.	1c	-mi-	1g	.
*Xlig	*	*	*	*	*
=153-	=153-	=153-	=153-	=153-	=153-
0D	-mi-	1d	.	2f/	.
.	.	.	.	1g	.
*	*	*Xlig	*	*	*
!	!	!LO:N:vis=0	!	!	!
.	.	0.d;	-nus	.	.
.	.	.	.	2f/	-mi-
=154-	=154-	=154-	=154-	=154-	=154-
0G\l;<	-nus	.	.	0g\l;<	-nvs
*	*	*custos:d	*	*custos:G	*
=155-	=155-	=155-	=155-	=155-	=155-
*	*	*lig	*	*	*
!	!	!LO:LB:g=original	!	!LO:LB:g=original	!
2G/	Tu	1d	Tu	0G	Tu
2F/	.	.	.	.	.
1E	.	1g	.	.	.
*	*	*Xlig	*	*	*
=156-	=156-	=156-	=156-	=156-	=156-
1D	so-	1f	So-	1A	so-
1C	-lus	1g	-lus	1c	-lus
=157-	=157-	=157-	=157-	=157-	=157-
*lig	*	*lig	*	*	*
1F	al-	1a	al-	1c	al-
1C	.	1g	.	2c/	.
.	.	.	.	2B/	.
*Xlig	*	*Xlig	*	*	*
=158-	=158-	=158-	=158-	=158-	=158-
1D	-tiſ-	1f	-tis-	2A/	tis-
.	.	.	.	2a\	.
2E/	-si-	1e	-ſi-	2g\	-ſi-
2F/	.	.	.	2a\	.
=159-	=159-	=159-	=159-	=159-	=159-
1G	-mus	1d	-mus	1g	-mus
*custos:C	*	*lig	*	*	*
!LO:LB:g=original	!	!	!	!	!
2C/	Je-	1c	Je-	2e/	Je-
2D/	.	.	.	2f/	.
=160-	=160-	=160-	=160-	=160-	=160-
1E	.	1B	.	1g	.
*	*	*Xlig	*	*	*
1F	-su	1A	-su	1a	.
=161-	=161-	=161-	=161-	=161-	=161-
1C	cri-	1c	.	1g	-sv
*	*	*	*	*custos:g	*
!	!	!LO:PB:g=original	!	!	!
[1C/l;	-ste	1G	cri-	2g/	cri-
.	.	.	.	2e/	.
=162-	=162-	=162-	=162-	=162-	=162-
0/C]	.	0G;	-ſte	0e\l;<	-ste
=163-	=163-	=163-	=163-	=163-	=163-
*	*	*clefC4	*	*	*
1D	Cum	1D	Cum	2f/	Cum
.	.	.	.	1f	san-
*	*	*custos:F	*	*	*
!	!	!LO:LB:g=original	!	!	!
1D	s(an)-	1F	San-	.	.
.	.	.	.	2d/	-cto
=164-	=164-	=164-	=164-	=164-	=164-
1C	-cto	1G	-cto	1e	spi-
*	*	*lig	*	*	*
0C	spi-	1G	spi-	1e	.
=165-	=165-	=165-	=165-	=165-	=165-
*	*	*	*	*lig	*
.	.	1c	.	1e	.
*	*	*Xlig	*	*	*
1D	.	1B	.	1f	.
*	*	*	*	*Xlig	*
=166-	=166-	=166-	=166-	=166-	=166-
*	*	*lig	*	*	*
2C/	-ri-	1c	-ri-	1e	-ri-
2E/	.	.	.	.	.
1D	.	1d	.	1f	.
*custos:E	*	*Xlig	*	*	*
=167-	=167-	=167-	=167-	=167-	=167-
!LO:PB:g=original	!	!	!	!	!
1E	.	1c	-tu	2g/	.
.	.	.	.	1g	-tv
1D	-tu	1d	in	.	.
.	.	.	.	2f/	.
=168-	=168-	=168-	=168-	=168-	=168-
*	*	*lig	*	*	*
1G	in	1d	.	1g	in
*	*	*	*	*custos:G	*
!	!	!	!	!LO:LB:g=original	!
2E/	.	1e	.	1G	.
2C/	.	.	.	.	.
*	*	*Xlig	*	*	*
=169-	=169-	=169-	=169-	=169-	=169-
1G	.	1d	glo-	2G/	.
.	.	.	.	2A/	.
1G	glo-	1d	-ri-	1B	glo-
=170-	=170-	=170-	=170-	=170-	=170-
*	*	*lig	*	*	*
1C	-ri-	1c	.	2A/	-ri-
.	.	.	.	1G	.
2G/	.	1B	.	.	.
2E/	.	.	.	1g\	-a
*	*	*Xlig	*	*	*
=171-	=171-	=171-	=171-	=171-	=171-
*	*	*lig	*	*	*
2C/	a	1A	-a	.	.
2D/	.	.	.	2f/	.
2E/	.	1G	.	1g	.
2C/	.	.	.	.	.
*custos:c	*	*Xlig	*	*	*
=172-	=172-	=172-	=172-	=172-	=172-
*	*	*lig	*	*	*
!LO:LB:g=original	!	!	!	!	!
1c	.	1A	de-	2e/	de-
.	.	.	.	1f	-i
1A	.	1c	.	.	.
.	.	.	.	2f/	.
*	*	*Xlig	*	*	*
=173-	=173-	=173-	=173-	=173-	=173-
2B\	i	1G	-i	2g/	.
1c	.	.	.	2e/	.
*	*	*lig	*	*	*
.	.	1F	pa-	2f/	.
2B\	pa-	.	.	2d/	Pa-
=174-	=174-	=174-	=174-	=174-	=174-
1c	.	1E	.	1g	.
*	*	*Xlig	*	*custos:a	*
!	!	!	!	!LO:LB:g=original	!
1A	.	1F	.	1a	.
*	*	*custos:G	*	*	*
=175-	=175-	=175-	=175-	=175-	=175-
!	!	!LO:LB:g=original	!	!	!
1B	.	1G	.	1g	.
*	*	*lig	*	*	*
2c\	tris	1F	-tris	1a	-tris
2A/	.	.	.	.	.
=176-	=176-	=176-	=176-	=176-	=176-
2B\	.	1E	.	2g\	.
2G/	.	.	.	1g	.
*	*	*Xlig	*	*	*
1A	.	1D	.	.	.
.	.	.	.	2f/	.
=177-	=177-	=177-	=177-	=177-	=177-
1G	A-	1G	A-	2d/	A-
.	.	.	.	2e/	.
*	*	*lig	*	*	*
0F	.	1A	.	2f/	.
.	.	.	.	2g/	.
=178-	=178-	=178-	=178-	=178-	=178-
.	.	1c	.	1a	.
*custos:G	*	*Xlig	*	*	*
*clefF4	*	*lig	*	*	*
!LO:LB:g=original	!	!	!	!	!
1G	.	1B	.	2d/	.
.	.	.	.	2e/	.
=179-	=179-	=179-	=179-	=179-	=179-
0F	.	1A	.	2f/	.
.	.	.	.	2g/	.
*	*	*Xlig	*	*	*
*	*	*lig	*	*	*
.	.	1c	.	1a	.
=180-	=180-	=180-	=180-	=180-	=180-
1E	.	1G	.	2g/	.
*	*	*	*	*custos:G	*
!	!	!	!	!LO:LB:g=original	!
.	.	.	.	2G/	.
*	*	*Xlig	*	*	*
*	*	*lig	*	*	*
1D	.	1F	.	2A/	.
.	.	.	.	2B/	.
=181-	=181-	=181-	=181-	=181-	=181-
1C	.	1G	.	1c	.
*	*	*Xlig	*	*	*
*	*	*lig	*	*	*
1F	.	1A	.	1c	.
=182-	=182-	=182-	=182-	=182-	=182-
1BB	.	1B	.	1f	.
*	*	*Xlig	*	*	*
1C	.	1G	.	1e	.
=183-	=183-	=183-	=183-	=183-	=183-
2D/	.	2F/	.	2a\	.
2BB/	.	2G/	.	1g	.
2C/	.	1A	.	.	.
2D/	.	.	.	2f\	.
=184-	=184-	=184-	=184-	=184-	=184-
0GG/l;	-men	0G\l;<	-men	0g\l;<	-men
==	==	==	==	==	==
*-	*-	*-	*-	*-	*-
!!!system-decoration: [(s1,s2,s3)]
!!!RDF**kern: l = terminal long
!!!RDF**kern: > = above
!!!RDF**kern: < = below
!!!ENC: Katarzyna Serwa
!!!END: 2022-01-04
!!!ENC: Filip Voros
!!!END: 2021-12-31
